images/Exercism_files/hints-c457520410f634c7ecee6c9aa99a2e306c605ec1.svg

<svg fill="none" height="24" viewBox="0 0 24 24" width="24" xmlns="http://www.w3.org/2000/svg"><g stroke="#000" stroke-linecap="round" stroke-linejoin="round" stroke-width="1.5"><path d="m15 17.25v2.25c0 .8284-.6716 1.5-1.5 1.5h-3c-.82843 0-1.5-.6716-1.5-1.5v-2.25"/><path d="m12 .75v1.5"/><path d="m1.5 11.25h1.5"/><path d="m3.75 3.75 1.1 1.057"/><path d="m22.5 11.25h-1.5"/><path d="m20.25 3.75-1.1 1.057"/><path clip-rule="evenodd" d="m8.91501 17.25h6.16999c2.2739-1.1287 3.6989-3.4616 3.665-6-.0656-3.70039-3.0496-6.68435-6.75-6.75-3.7019.06572-6.68647 3.05205-6.74999 6.754-.03239 2.537 1.39239 4.8679 3.665 5.996z" fill-rule="evenodd"/><path d="m12 21v2.25"/><path d="m12 13.5v3.75"/><path d="m9.75 11.25 2.25 2.25 2.25-2.25"/></g></svg>

<svg width="24" height="24" viewBox="0 0 24 24" fill="none" xmlns="http://www.w3.org/2000/svg">
<path d="M15 17.25V19.5C15 20.3284 14.3284 21 13.5 21H10.5C9.67157 21 9 20.3284 9 19.5V17.25" stroke="#000000" stroke-width="1.5" stroke-linecap="round" stroke-linejoin="round"/>
<path d="M12 0.75V2.25" stroke="#000000" stroke-width="1.5" stroke-linecap="round" stroke-linejoin="round"/>
<path d="M1.5 11.25H3" stroke="#000000" stroke-width="1.5" stroke-linecap="round" stroke-linejoin="round"/>
<path d="M3.75 3.75L4.85 4.807" stroke="#000000" stroke-width="1.5" stroke-linecap="round" stroke-linejoin="round"/>
<path d="M22.5 11.25H21" stroke="#000000" stroke-width="1.5" stroke-linecap="round" stroke-linejoin="round"/>
<path d="M20.25 3.75L19.15 4.807" stroke="#000000" stroke-width="1.5" stroke-linecap="round" stroke-linejoin="round"/>
<path fill-rule="evenodd" clip-rule="evenodd" d="M8.91501 17.25H15.085C17.3589 16.1213 18.7839 13.7884 18.75 11.25C18.6844 7.54961 15.7004 4.56565 12 4.5C8.2981 4.56572 5.31353 7.55205 5.25001 11.254C5.21762 13.791 6.6424 16.1219 8.91501 17.25V17.25Z" stroke="#000000" stroke-width="1.5" stroke-linecap="round" stroke-linejoin="round"/>
<path d="M12 21V23.25" stroke="#000000" stroke-width="1.5" stroke-linecap="round" stroke-linejoin="round"/>
<path d="M12 13.5V17.25" stroke="#000000" stroke-width="1.5" stroke-linecap="round" stroke-linejoin="round"/>
<path d="M9.75 11.25L12 13.5L14.25 11.25" stroke="#000000" stroke-width="1.5" stroke-linecap="round" stroke-linejoin="round"/>
</svg>
